dist/svgs/unicons/line/border-right.svg

<svg xmlns="http://www.w3.org/2000/svg" viewBox="0 0 24 24"><path d="M4.5 7a1 1 0 101 1 1 1 0 00-1-1zm0-4a1 1 0 101 1 1 1 0 00-1-1zm4 16a1 1 0 101 1 1 1 0 00-1-1zm-4 0a1 1 0 101 1 1 1 0 00-1-1zm4-8a1 1 0 101 1 1 1 0 00-1-1zm0-8a1 1 0 101 1 1 1 0 00-1-1zm-4 8a1 1 0 101 1 1 1 0 00-1-1zm0 4a1 1 0 101 1 1 1 0 00-1-1zm12-12a1 1 0 101 1 1 1 0 00-1-1zm0 8a1 1 0 101 1 1 1 0 00-1-1zm-4 8a1 1 0 101 1 1 1 0 00-1-1zm0-16a1 1 0 101 1 1 1 0 00-1-1zm8 0a1 1 0 00-1 1v16a1 1 0 002 0V4a1 1 0 00-1-1zm-4 16a1 1 0 101 1 1 1 0 00-1-1zm-4-12a1 1 0 101 1 1 1 0 00-1-1zm0 8a1 1 0 101 1 1 1 0 00-1-1zm0-4a1 1 0 101 1 1 1 0 00-1-1z"/></svg>

<svg xmlns="http://www.w3.org/2000/svg" viewBox="0 0 24 24"><path d="M4.5,7a1,1,0,1,0,1,1A1,1,0,0,0,4.5,7Zm0-4a1,1,0,1,0,1,1A1,1,0,0,0,4.5,3Zm4,16a1,1,0,1,0,1,1A1,1,0,0,0,8.5,19Zm-4,0a1,1,0,1,0,1,1A1,1,0,0,0,4.5,19Zm4-8a1,1,0,1,0,1,1A1,1,0,0,0,8.5,11Zm0-8a1,1,0,1,0,1,1A1,1,0,0,0,8.5,3Zm-4,8a1,1,0,1,0,1,1A1,1,0,0,0,4.5,11Zm0,4a1,1,0,1,0,1,1A1,1,0,0,0,4.5,15Zm12-12a1,1,0,1,0,1,1A1,1,0,0,0,16.5,3Zm0,8a1,1,0,1,0,1,1A1,1,0,0,0,16.5,11Zm-4,8a1,1,0,1,0,1,1A1,1,0,0,0,12.5,19Zm0-16a1,1,0,1,0,1,1A1,1,0,0,0,12.5,3Zm8,0a1,1,0,0,0-1,1V20a1,1,0,0,0,2,0V4A1,1,0,0,0,20.5,3Zm-4,16a1,1,0,1,0,1,1A1,1,0,0,0,16.5,19Zm-4-12a1,1,0,1,0,1,1A1,1,0,0,0,12.5,7Zm0,8a1,1,0,1,0,1,1A1,1,0,0,0,12.5,15Zm0-4a1,1,0,1,0,1,1A1,1,0,0,0,12.5,11Z"/></svg>
